X:32
T:Blues clair
C:Django Reinhardt
N:TablEdited by JeePee
L:1/8
Q:1/4=180
M:4/4
K:C
E8 | EG c2 e2 dE | z7/1E | G_B d^d/=d/ cA G^D | C7/1C | ^Dd2c AG DC | A,7/1B, | 
CD EF GA Bc | d3d/c/ Bc AF | DG3 F/G2z/^D | EC A,2 C2 C2 | CD/C/ B,C EG3 | E7/1_B, | 
B,C E3/2_B/ =B2 AE | z7/1E | GA de/d/ cA G^D | C2 A,A4z | A^G =G^F =FE ^D2 | E2 GB, z4 | 
z3^G, A,C E2 | G2 G2 GF DB, | E2 E2 E2 G,C | z8 | z8 | e2 Gd z4 | c2 EB z4 | A2 ^DE A2 DC | 
A,2 A,A, CC3 | z3^d2c AG | ^DC2A z4 | z2 GA/G/ ^F=F E^D | G,2 G,2 G,2 G,2 | G,B, DG EA GF | 
DC B,G, E2 G,C | 

